X:10
T:Glenallen (Harmony line), The
S:The Black Book
M:C
K:G
|: D2G2 | B2G2  | E2A2 | c2A2 | D2G2 | B2G2 | cBAG | FDG2:|
|:GdcB | GdcB | Aedc | Aedc | GdcB | GdcB | cBAG | FDG2:|
